static/img/kroki/fbb0efd5936a76272df882f5235d13d3.svg

<?xml version="1.0" encoding="us-ascii" standalone="no"?><svg xmlns="http://www.w3.org/2000/svg" xmlns:xlink="http://www.w3.org/1999/xlink" contentStyleType="text/css" height="352px" preserveAspectRatio="none" style="width:400px;height:352px;" version="1.1" viewBox="0 0 400 352" width="400px" zoomAndPan="magnify"><defs/><g><!--class aws_iam_role--><g id="elem_aws_iam_role"><rect codeLine="23" fill="#3D176E" height="39.7891" id="aws_iam_role" rx="2.5" ry="2.5" style="stroke:#000D19;stroke-width:0.5;" width="157" x="178" y="7"/><ellipse cx="193" cy="26.8945" fill="#ADD1B2" rx="11" ry="11" style="stroke:#181818;stroke-width:1.0;"/><path d="M195.9688,32.5352 Q195.3906,32.832 194.75,32.9727 Q194.1094,33.1289 193.4063,33.1289 Q190.9063,33.1289 189.5781,31.4883 Q188.2656,29.832 188.2656,26.707 Q188.2656,23.582 189.5781,21.9258 Q190.9063,20.2695 193.4063,20.2695 Q194.1094,20.2695 194.75,20.4258 Q195.4063,20.582 195.9688,20.8789 L195.9688,23.5977 Q195.3438,23.0195 194.75,22.7539 Q194.1563,22.4727 193.5313,22.4727 Q192.1875,22.4727 191.5,23.5508 Q190.8125,24.6133 190.8125,26.707 Q190.8125,28.8008 191.5,29.8789 Q192.1875,30.9414 193.5313,30.9414 Q194.1563,30.9414 194.75,30.6758 Q195.3438,30.3945 195.9688,29.8164 L195.9688,32.5352 Z " fill="#000000"/><text fill="#D9B8FF" font-family="Helvetica" font-size="17" lengthAdjust="spacing" textLength="115" x="212" y="32.7798">aws_iam_role</text></g><!--class aws_sagemaker_app--><g id="elem_aws_sagemaker_app"><rect codeLine="26" fill="#3D176E" height="39.7891" id="aws_sagemaker_app" rx="2.5" ry="2.5" style="stroke:#000D19;stroke-width:0.5;" width="215" x="7" y="206.58"/><ellipse cx="22" cy="226.4745" fill="#ADD1B2" rx="11" ry="11" style="stroke:#181818;stroke-width:1.0;"/><path d="M24.9688,232.1152 Q24.3906,232.412 23.75,232.5527 Q23.1094,232.7089 22.4063,232.7089 Q19.9063,232.7089 18.5781,231.0683 Q17.2656,229.412 17.2656,226.287 Q17.2656,223.162 18.5781,221.5058 Q19.9063,219.8495 22.4063,219.8495 Q23.1094,219.8495 23.75,220.0058 Q24.4063,220.162 24.9688,220.4589 L24.9688,223.1777 Q24.3438,222.5995 23.75,222.3339 Q23.1563,222.0527 22.5313,222.0527 Q21.1875,222.0527 20.5,223.1308 Q19.8125,224.1933 19.8125,226.287 Q19.8125,228.3808 20.5,229.4589 Q21.1875,230.5214 22.5313,230.5214 Q23.1563,230.5214 23.75,230.2558 Q24.3438,229.9745 24.9688,229.3964 L24.9688,232.1152 Z " fill="#000000"/><text fill="#D9B8FF" font-family="Helvetica" font-size="17" lengthAdjust="spacing" textLength="173" x="41" y="232.3598">aws_sagemaker_app</text></g><!--class aws_sagemaker_domain--><g id="elem_aws_sagemaker_domain"><rect codeLine="29" fill="#3D176E" height="39.7891" id="aws_sagemaker_domain" rx="2.5" ry="2.5" style="stroke:#000D19;stroke-width:0.5;" width="248" x="44.5" y="106.79"/><ellipse cx="59.5" cy="126.6845" fill="#ADD1B2" rx="11" ry="11" style="stroke:#181818;stroke-width:1.0;"/><path d="M62.4688,132.3252 Q61.8906,132.622 61.25,132.7627 Q60.6094,132.9189 59.9063,132.9189 Q57.4063,132.9189 56.0781,131.2783 Q54.7656,129.622 54.7656,126.497 Q54.7656,123.372 56.0781,121.7158 Q57.4063,120.0595 59.9063,120.0595 Q60.6094,120.0595 61.25,120.2158 Q61.9063,120.372 62.4688,120.6689 L62.4688,123.3877 Q61.8438,122.8095 61.25,122.5439 Q60.6563,122.2627 60.0313,122.2627 Q58.6875,122.2627 58,123.3408 Q57.3125,124.4033 57.3125,126.497 Q57.3125,128.5908 58,129.6689 Q58.6875,130.7314 60.0313,130.7314 Q60.6563,130.7314 61.25,130.4658 Q61.8438,130.1845 62.4688,129.6064 L62.4688,132.3252 Z " fill="#000000"/><text fill="#D9B8FF" font-family="Helvetica" font-size="17" lengthAdjust="spacing" textLength="206" x="78.5" y="132.5698">aws_sagemaker_domain</text></g><!--class aws_sagemaker_image--><g id="elem_aws_sagemaker_image"><rect codeLine="32" fill="#3D176E" height="39.7891" id="aws_sagemaker_image" rx="2.5" ry="2.5" style="stroke:#000D19;stroke-width:0.5;" width="237" x="156" y="306.37"/><ellipse cx="171" cy="326.2645" fill="#ADD1B2" rx="11" ry="11" style="stroke:#181818;stroke-width:1.0;"/><path d="M173.9688,331.9052 Q173.3906,332.202 172.75,332.3427 Q172.1094,332.4989 171.4063,332.4989 Q168.9063,332.4989 167.5781,330.8583 Q166.2656,329.202 166.2656,326.077 Q166.2656,322.952 167.5781,321.2958 Q168.9063,319.6395 171.4063,319.6395 Q172.1094,319.6395 172.75,319.7958 Q173.4063,319.952 173.9688,320.2489 L173.9688,322.9677 Q173.3438,322.3895 172.75,322.1239 Q172.1563,321.8427 171.5313,321.8427 Q170.1875,321.8427 169.5,322.9208 Q168.8125,323.9833 168.8125,326.077 Q168.8125,328.1708 169.5,329.2489 Q170.1875,330.3114 171.5313,330.3114 Q172.1563,330.3114 172.75,330.0458 Q173.3438,329.7645 173.9688,329.1864 L173.9688,331.9052 Z " fill="#000000"/><text fill="#D9B8FF" font-family="Helvetica" font-size="17" lengthAdjust="spacing" textLength="195" x="190" y="332.1498">aws_sagemaker_image</text></g><!--link aws_iam_role to aws_sagemaker_domain--><g id="link_aws_iam_role_aws_sagemaker_domain"><path codeLine="35" d="M239.11,47.22 C223.69,64.36 205.2842,84.8206 189.8642,101.9506 " fill="none" id="aws_iam_role-to-aws_sagemaker_domain" style="stroke:#1A83AF;stroke-width:2.0;"/><polygon fill="#1A83AF" points="185.85,106.41,194.8442,102.3971,189.1952,102.6939,188.8984,97.0448,185.85,106.41" style="stroke:#1A83AF;stroke-width:2.0;"/></g><!--link aws_iam_role to aws_sagemaker_image--><g id="link_aws_iam_role_aws_sagemaker_image"><path codeLine="36" d="M274.34,47.25 C286.89,62.25 302.62,84.22 309.5,106.79 C331.28,178.26 302.1047,261.7171 285.7047,300.3471 " fill="none" id="aws_iam_role-to-aws_sagemaker_image" style="stroke:#1A83AF;stroke-width:2.0;"/><polygon fill="#1A83AF" points="283.36,305.87,290.559,299.1488,285.3139,301.2676,283.1951,296.0225,283.36,305.87" style="stroke:#1A83AF;stroke-width:2.0;"/></g><!--link aws_sagemaker_app to aws_sagemaker_image--><g id="link_aws_sagemaker_app_aws_sagemaker_image"><path codeLine="37" d="M146.11,246.8 C174.16,263.94 209.8012,285.7199 237.8312,302.8599 " fill="none" id="aws_sagemaker_app-to-aws_sagemaker_image" style="stroke:#1A83AF;stroke-width:2.0;"/><polygon fill="#1A83AF" points="242.95,305.99,237.3585,297.8823,238.6843,303.3816,233.185,304.7074,242.95,305.99" style="stroke:#1A83AF;stroke-width:2.0;"/></g><!--link aws_sagemaker_domain to aws_sagemaker_app--><g id="link_aws_sagemaker_domain_aws_sagemaker_app"><path codeLine="38" d="M157.83,147.01 C148.36,164.15 137.5093,183.807 128.0493,200.947 " fill="none" id="aws_sagemaker_domain-to-aws_sagemaker_app" style="stroke:#1A83AF;stroke-width:2.0;"/><polygon fill="#1A83AF" points="125.15,206.2,133.0009,200.2533,127.5661,201.8225,125.9969,196.3876,125.15,206.2" style="stroke:#1A83AF;stroke-width:2.0;"/></g><!--link aws_sagemaker_domain to aws_sagemaker_image--><g id="link_aws_sagemaker_domain_aws_sagemaker_image"><path codeLine="39" d="M190.27,146.79 C205.99,161.66 226.64,183.58 239.5,206.58 C257.64,239.02 266.1891,275.9127 270.5191,300.2527 " fill="none" id="aws_sagemaker_domain-to-aws_sagemaker_image" style="stroke:#1A83AF;stroke-width:2.0;"/><polygon fill="#1A83AF" points="271.57,306.16,273.9318,296.5985,270.6943,301.2373,266.0555,297.9997,271.57,306.16" style="stroke:#1A83AF;stroke-width:2.0;"/></g><!--SRC=[bP11Qy9048Nl-HKBdWNJq9fS2gaWxKLAxQqK6REpSKbsDyok5LlwtnkDBMjYjDwMUT_CUszNaYD3LRajKwYMI3QmXTGL42YM4fdDn9I6s4084D6uBKwDTXU16IXaZrX-e9CPj8dNbSmAZTQo6qzwWAp8oQmrRyux0crh2RNpg4a9rgREaLok7NfXUBACXMYJxQE3Y8VZE-nWXZZI0HcDHZnCsiX5gxEz_uYv_4GM-fysCmuxCJiMU-fioXtXXUmK_TLxCpu3vrBdxDQRlJIPI2CTpUShu6QpemMKrhUn3WcDsrOuwRJ29EPYV19-weE3RFTr33Ps8K4jo9J8leBWsvjRo551WRI0gkeNkL4WTRykLVriv2EtuTiWJECedRuFxq-U_3U-TmYwaQzSEHGvirKVlNgdSVe1]--></g></svg>

<svg xmlns="http://www.w3.org/2000/svg" width="400" height="352" viewBox="0 0 400 352"><rect width="157" height="39.789" x="178" y="7" fill="#3D176E" rx="2.5" ry="2.5" style="stroke:#000d19;stroke-width:.5"/><circle cx="193" cy="26.895" r="11" fill="#ADD1B2" style="stroke:#181818;stroke-width:1"/><path d="M195.969 32.535q-.578.297-1.219.438-.64.156-1.344.156-2.5 0-3.828-1.64-1.312-1.657-1.312-4.782t1.312-4.781q1.328-1.656 3.828-1.656.703 0 1.344.156.656.156 1.219.453v2.719q-.625-.578-1.219-.844-.594-.281-1.219-.281-1.344 0-2.031 1.078-.687 1.062-.687 3.156t.687 3.172q.688 1.062 2.031 1.062.625 0 1.219-.265.594-.281 1.219-.86z"/><text x="212" y="32.78" fill="#D9B8FF" font-family="Helvetica" font-size="17" textLength="115">aws_iam_role</text><rect width="215" height="39.789" x="7" y="206.58" fill="#3D176E" rx="2.5" ry="2.5" style="stroke:#000d19;stroke-width:.5"/><circle cx="22" cy="226.475" r="11" fill="#ADD1B2" style="stroke:#181818;stroke-width:1"/><path d="M24.969 232.115q-.578.297-1.219.438-.64.156-1.344.156-2.5 0-3.828-1.64-1.312-1.657-1.312-4.782t1.312-4.781q1.328-1.656 3.828-1.656.703 0 1.344.156.656.156 1.219.453v2.719q-.625-.578-1.219-.844-.594-.281-1.219-.281-1.343 0-2.031 1.078-.687 1.062-.687 3.156t.687 3.172q.688 1.062 2.031 1.062.625 0 1.219-.265.594-.281 1.219-.86z"/><text x="41" y="232.36" fill="#D9B8FF" font-family="Helvetica" font-size="17" textLength="173">aws_sagemaker_app</text><rect width="248" height="39.789" x="44.5" y="106.79" fill="#3D176E" rx="2.5" ry="2.5" style="stroke:#000d19;stroke-width:.5"/><circle cx="59.5" cy="126.684" r="11" fill="#ADD1B2" style="stroke:#181818;stroke-width:1"/><path d="M62.469 132.325q-.578.297-1.219.438-.64.156-1.344.156-2.5 0-3.828-1.64-1.312-1.657-1.312-4.782t1.312-4.781q1.328-1.656 3.828-1.656.703 0 1.344.156.656.156 1.219.453v2.719q-.625-.579-1.219-.844-.594-.281-1.219-.281-1.343 0-2.031 1.078-.687 1.062-.687 3.156t.687 3.172q.688 1.062 2.031 1.062.625 0 1.219-.265.594-.281 1.219-.86z"/><text x="78.5" y="132.57" fill="#D9B8FF" font-family="Helvetica" font-size="17" textLength="206">aws_sagemaker_domain</text><rect width="237" height="39.789" x="156" y="306.37" fill="#3D176E" rx="2.5" ry="2.5" style="stroke:#000d19;stroke-width:.5"/><circle cx="171" cy="326.264" r="11" fill="#ADD1B2" style="stroke:#181818;stroke-width:1"/><path d="M173.969 331.905q-.578.297-1.219.438-.64.156-1.344.156-2.5 0-3.828-1.64-1.312-1.657-1.312-4.782t1.312-4.781q1.328-1.656 3.828-1.656.703 0 1.344.156.656.156 1.219.453v2.719q-.625-.579-1.219-.844-.594-.281-1.219-.281-1.344 0-2.031 1.078-.687 1.062-.687 3.156t.687 3.172q.688 1.062 2.031 1.062.625 0 1.219-.265.594-.281 1.219-.86z"/><text x="190" y="332.15" fill="#D9B8FF" font-family="Helvetica" font-size="17" textLength="195">aws_sagemaker_image</text><path fill="none" d="M239.11 47.22c-15.42 17.14-33.826 37.6-49.246 54.73" style="stroke:#1a83af;stroke-width:2"/><path fill="#1A83AF" d="m185.85 106.41 8.994-4.013-5.649.297-.297-5.65z" style="stroke:#1a83af;stroke-width:2"/><path fill="none" d="M274.34 47.25c12.55 15 28.28 36.97 35.16 59.54 21.78 71.47-7.395 154.927-23.795 193.557" style="stroke:#1a83af;stroke-width:2"/><path fill="#1A83AF" d="m283.36 305.87 7.199-6.721-5.245 2.119-2.119-5.245z" style="stroke:#1a83af;stroke-width:2"/><path fill="none" d="M146.11 246.8c28.05 17.14 63.691 38.92 91.721 56.06" style="stroke:#1a83af;stroke-width:2"/><path fill="#1A83AF" d="m242.95 305.99-5.591-8.108 1.325 5.5-5.499 1.325z" style="stroke:#1a83af;stroke-width:2"/><path fill="none" d="M157.83 147.01c-9.47 17.14-20.32 36.797-29.78 53.937" style="stroke:#1a83af;stroke-width:2"/><path fill="#1A83AF" d="m125.15 206.2 7.85-5.947-5.434 1.57-1.57-5.435z" style="stroke:#1a83af;stroke-width:2"/><path fill="none" d="M190.27 146.79c15.72 14.87 36.37 36.79 49.23 59.79 18.14 32.44 26.69 69.333 31.02 93.673" style="stroke:#1a83af;stroke-width:2"/><path fill="#1A83AF" d="m271.57 306.16 2.362-9.562-3.238 4.64-4.639-3.238z" style="stroke:#1a83af;stroke-width:2"/></svg>
